X: 15134
T: Giga De Tenerife
R: jig
M: 6/8
K: Gmajor
B3 BAB|GAB dgf|e2 g2 ed|BAG Adc|
B3 BAB|GAB dgf|e2g edB|AGF G2A|
BDD BAB|GAB dgf|e2 g3 f|agf ged|
B3 BAB|GAB dgf|e2g edB|AGF G3|
E2G2 AB|EGA Bed|EGA Bed|ged egf|
E2G2 AB|EGA Bed|gfe agf|gfe deg|
E2G2 AB|EGA Bed|EGA Bed|ged eg(f|
f2)e2(d2|d)cB Aed|BAG cde|dgB ABc|

